X:1
T:Tommy Peoples'
R:reel
M:4/4
L:1/8
K:Bm
|:~B2Bc dBAF|~B2Bc dfed|~B2Bc dcdB|1 ABde fded:|2 ABde fdec|]
|:dfaf bfaf|dfaf ~g2fg|afge dcdB|1 ABde fdec:|2 ABde fded|]